X: 105
T: Derek and Maureen Haynes for Karin's Strathspey
C: Pat Clark
S: Kate Carpenter <katecarpenter:hotmail.co.uk> 2013-4-26
N: This is as received from Kate, minus the final '!' marks, and with spacing around the bar lines.
N: This is actually just two 8-bar phrases, played ABBA.
R: Strathspey
M: C
K: Dm
[^C2E2G2A2] | "Dm"D2F2A2d2 | "A7"^c>A =B>c "Dm"d2D2 | "Gm"B>A G<B "Dm"A>G F<A | "Gm"G>F E>D "A7"^C>=B, (3A,=B,^C |
"Dm"D2F2A2d2 | "A7"^c>A =B>c "Dm"d2D2 | "A7"e>d ^c<e "Dm"f>e "Gm"(3d=cB | "A7"A2[E2G2A2^c2]"Dm"[F2A2d2] "C7"[E2G2B2=c2] |
"F"[A2c2f2]c2 A>GF2 | "C7"E>F G<E "F"F>GA2 | "C7"G>A B<G "F"A>Bc2 | "G7"=B>c (3dcB "C7"c2[E2G2_B2c2] |
"F"[A2c2f2]c2 A>GF2 | "C"E>F G<E "Dm"F>GA2 | "A7"G>F E<=C "Dm"(3DFA "Gm"(3d=cB | "A7"A2[E2G2A2^c2]"Dm"[F2A2d2]"C7"[E2G2B2=c2] |
"F"[A2c2f2]c2 A>GF2 | "C7"E>F G<E "F"F>GA2 | "C7"G>A B<G "F"A>Bc2 | "G7"=B>c (3dcB "C7"c2[E2G2_B2c2] |
"F"[A2c2f2]c2 A>GF2 | "C"E>F G<E "Dm"F>GA2 | "A7"G>F E<=C "Dm"(3DFA "Gm"(3d=cB | "A7"A2[E2G2A2^c2]"Dm"[F2A2d2] "A7"[^C2E2G2A2] |
"Dm"D2F2A2d2 | "A7"^c>A =B>c "Dm"d2D2 | "Gm"B>A G<B "Dm"A>G F<A | "Gm"G>F E>D "A7"^C>=B, (3A,=B,^C |
"Dm"D2F2A2d2 | "A7"^c>A =B>c "Dm"d2D2 | "A7"e>d ^c<e "Dm"f>e "Gm"(3d=cB | "A7"A2[E2G2A2^c2]"Dm"[F2A2d2] |]
